packages/core/src/svgs/tokens/mono/AEGIS.svg

<svg width="24" height="24" viewBox="0 0 24 24" fill="none" xmlns="http://www.w3.org/2000/svg">
<path d="M19.5332 14.74C19.7332 14.1933 19.8666 13.62 19.9465 13.0399L21.0799 13.1799C21.0132 13.7334 20.8865 14.2733 20.7199 14.8067L21.24 14.9733L21.3266 14.6866L21.4066 14.3932L21.4733 14.1067L21.5066 13.96L21.5332 13.8066L21.5866 13.5133L21.6265 13.22L21.6466 13.0667L21.6533 12.9999L21.66 12.92L21.6866 12.6199L19.9932 12.5133L20.0066 12.2599V12H20.3066V12.2666L21.9932 12.3133C21.9689 13.3597 21.7754 14.3954 21.42 15.3799L20.3399 14.9867C20.5199 14.4866 20.6599 13.96 20.7399 13.4333L20.1999 13.3467C20.1133 13.8533 19.9865 14.36 19.8065 14.8467L19.5332 14.74Z" fill="white"/>
<path d="M18.1328 17.1467C18.5195 16.7001 18.8395 16.2134 19.1128 15.6935L20.1261 16.2134C19.8729 16.7068 19.5728 17.1735 19.2262 17.6134L19.6661 17.9468C20.1568 17.3158 20.5667 16.6261 20.8862 15.8934L19.3395 15.2135L19.3928 15.1001L19.5328 14.7401L19.8128 14.8401L19.7128 15.0802L21.2863 15.7134L21.2195 15.8934L21.1329 16.0734L21.0529 16.2535L21.0128 16.3402L20.9661 16.4268L20.7928 16.7734L20.5928 17.1134C20.3262 17.5602 20.0262 17.9867 19.6929 18.3935L18.8129 17.6601C19.1595 17.2468 19.4662 16.8001 19.7262 16.3335L19.2461 16.0669C18.9929 16.5135 18.6995 16.9468 18.3661 17.3401L18.1395 17.1467H18.1328Z" fill="white"/>
<path d="M16.0005 18.9336C16.5138 18.6469 16.9872 18.3003 17.4204 17.9002L18.1938 18.7402C17.7872 19.1136 17.3471 19.4536 16.8738 19.747L17.1672 20.2137L17.4204 20.0536L17.6671 19.8803C17.8272 19.7669 17.9804 19.6403 18.1405 19.5136C18.4471 19.2602 18.7405 18.9936 19.0205 18.7002L17.7937 17.5269L17.9672 17.3402L18.1338 17.1469L18.3671 17.3402L18.1938 17.5403L19.4672 18.6669C18.7644 19.4382 17.9512 20.101 17.0538 20.6337L16.4738 19.647C16.9405 19.3803 17.3737 19.0669 17.7805 18.7136L17.4204 18.3003C17.0272 18.6337 16.6072 18.9403 16.1539 19.1937L16.0139 18.9403L16.0005 18.9336Z" fill="white"/>
<path d="M13.3925 19.8868C13.9657 19.7867 14.5324 19.62 15.0725 19.4L15.5191 20.4534C15.0058 20.6667 14.4726 20.8333 13.9325 20.9467L14.0459 21.4867C14.2458 21.44 14.4324 21.4 14.6258 21.3401L14.9125 21.26L15.1992 21.16L15.3392 21.1133L15.4792 21.0601L15.7592 20.9467L16.0325 20.8268C16.1258 20.7867 16.2191 20.7467 16.3058 20.6933L15.5524 19.1801L15.7792 19.0667L16.0059 18.9333L16.1526 19.2L15.9258 19.3201L16.7258 20.8134C15.8047 21.3056 14.8131 21.6519 13.7858 21.8401L13.5859 20.7134C14.1124 20.6201 14.6325 20.4734 15.1324 20.2867L14.9325 19.7734C14.4525 19.9533 13.9525 20.0933 13.4459 20.18L13.3925 19.8868ZM10.6057 19.8868C11.1858 19.9933 11.7724 20.0268 12.3592 20L12.4125 21.1468C11.8592 21.1734 11.2992 21.1468 10.7457 21.0667L10.6791 21.6134L10.9725 21.6534L11.2724 21.6733L11.4258 21.6867L11.5725 21.6934L11.8724 21.7001H12.4724L13.0725 21.6467L12.8859 19.96C13.0525 19.9401 13.2258 19.9267 13.3925 19.8934L13.4459 20.18L13.1858 20.2266L13.4258 21.8934C12.3924 22.0467 11.3459 22.0334 10.3125 21.86L10.5124 20.7268C11.0391 20.8201 11.5792 20.8601 12.1124 20.8601L12.0991 20.3068C11.5857 20.3068 11.0659 20.2733 10.5591 20.18L10.6057 19.8868Z" fill="white"/>
<path d="M7.99906 18.9333C8.49907 19.2334 9.03907 19.4668 9.59907 19.6467L9.26572 20.74C8.73241 20.5734 8.21907 20.3534 7.72574 20.0933L7.46572 20.5801L7.73239 20.7134C7.82573 20.7667 7.91906 20.8 8.00574 20.8467C8.09907 20.8867 8.18573 20.9333 8.27907 20.9668L8.55907 21.0733L8.84575 21.1801L9.12572 21.2734L9.4191 21.3533L9.5591 21.3933L9.70579 21.4335L10.1057 19.7867L10.3524 19.8401L10.6057 19.8868L10.5525 20.18L10.2991 20.1333L9.95903 21.7934C8.93376 21.5798 7.94835 21.2065 7.03906 20.6868L7.6124 19.6934C8.07907 19.96 8.56574 20.1867 9.07236 20.3601L9.25234 19.8401C8.76574 19.6733 8.2924 19.4534 7.84573 19.1934L7.99241 18.94L7.99906 18.9333Z" fill="white"/>
<path d="M5.86639 17.1469C6.23973 17.6003 6.6664 18.0069 7.13307 18.3602L6.43973 19.2736C5.99973 18.9403 5.58639 18.5602 5.21305 18.1402L4.80638 18.5136C5.3464 19.1069 5.95307 19.6336 6.61974 20.0803L7.55973 18.6669C7.70641 18.7603 7.84641 18.8603 7.99309 18.9336L7.84641 19.2002L7.62641 19.0669L6.73308 20.5003C5.84267 19.9531 5.04588 19.2666 4.37305 18.4669L5.23973 17.7336C5.59306 18.1335 5.97306 18.5136 6.39306 18.8536L6.73973 18.4336C6.33973 18.1003 5.9664 17.7336 5.63306 17.3402L5.85973 17.1469H5.86639Z" fill="white"/>
<path d="M4.46679 14.7401C4.66681 15.2934 4.93346 15.8201 5.2468 16.3134L4.2868 16.9335C3.98667 16.4645 3.73005 15.9692 3.52012 15.4535L3.01346 15.6601L3.06678 15.8001L3.13345 15.9334L3.25345 16.2134L3.38679 16.4802L3.53345 16.7468L3.68678 17.0002C3.73345 17.0868 3.79347 17.1735 3.84679 17.2534C3.9468 17.4267 4.06679 17.5868 4.18013 17.7534L5.54681 16.7468L5.70014 16.9468L5.8668 17.1467L5.63347 17.3401L5.47348 17.1402L4.14012 18.1868C3.49463 17.365 2.98176 16.4472 2.62012 15.4667L3.68678 15.0668C3.87345 15.5734 4.10679 16.0669 4.38679 16.5268L4.85348 16.2401C4.58822 15.7953 4.36503 15.3266 4.18679 14.8401L4.46679 14.7401Z" fill="white"/>
<path d="M3.98668 12.0001C3.98668 12.5867 4.05335 13.1735 4.18002 13.7467L3.06667 13.9934C2.94667 13.46 2.87334 12.9 2.85334 12.3467L2.30666 12.3668C2.32667 13.1668 2.46667 13.9668 2.68667 14.7334L4.31335 14.2534L4.34668 14.3801L4.46668 14.7401L4.19335 14.8401L4.10667 14.6001L2.50001 15.1268L2.43333 14.9401L2.38667 14.7535L2.28666 14.3734C2.25334 14.2468 2.22 14.12 2.2 13.9934L2.13333 13.6067C2.04667 13.0934 2 12.5733 2 12.0535L3.14667 12.0468C3.14667 12.58 3.20001 13.1134 3.3 13.6467L3.83334 13.5401C3.74001 13.0335 3.69334 12.5201 3.69334 12.0001H3.98668ZM4.46668 9.25998C4.26668 9.80677 4.13335 10.38 4.06001 10.9601L2.92667 10.8268C2.99334 10.2667 3.11333 9.72665 3.28667 9.19341L2.76 9.02665L2.67334 9.31334L2.59334 9.60672L2.49333 10.0468L2.41333 10.4867L2.37334 10.7868L2.35333 10.9335L2.34 11.08L2.32 11.3801L4.00668 11.4868L3.99335 11.74V12.0001H3.69334V11.7333L2.00666 11.6867C2.0338 10.6421 2.22966 9.60874 2.58667 8.62671L3.66001 9.01343C3.48001 9.52008 3.34667 10.0401 3.26001 10.5734L3.80001 10.6535C3.88668 10.1467 4.01335 9.64001 4.19335 9.16012L4.46668 9.25998ZM5.86669 6.85337C5.48669 7.30003 5.16003 7.78671 4.88668 8.3067L3.87334 7.78671C4.12668 7.29338 4.42668 6.82671 4.77336 6.3867L4.34001 6.05335C3.84713 6.684 3.43504 7.3738 3.11334 8.1067L4.66002 8.78672L4.60668 8.90003L4.46668 9.25998L4.19335 9.16012L4.28668 8.92009L2.71334 8.28671L2.78001 8.1067L2.86667 7.92671L2.94667 7.74671L2.98667 7.66004L3.03333 7.57338L3.20667 7.2267L3.40667 6.8867C3.67334 6.44002 3.97335 6.01336 4.30669 5.60669L5.18669 6.34003C4.84001 6.75336 4.53335 7.20004 4.27335 7.66671L4.75335 7.93337C5.00669 7.4867 5.30003 7.05337 5.63335 6.66003L5.86003 6.85337H5.86669Z" fill="white"/>
<path d="M7.9994 5.06684C7.48607 5.3535 7.01274 5.70017 6.57939 6.10017L5.80605 5.26016C6.21273 4.88683 6.65273 4.54683 7.12606 4.25349L6.83273 3.78683L6.57939 3.94683L6.3394 4.12017C6.17273 4.23349 6.0194 4.36683 5.8594 4.48683C5.55273 4.74017 5.25938 5.0135 4.97938 5.30017L6.20605 6.47351L6.03273 6.66017L5.86605 6.85352L5.63272 6.66017L5.80605 6.46018L4.53271 5.33351C5.23552 4.56224 6.04882 3.89946 6.94607 3.36682L7.52608 4.3535C7.05941 4.62017 6.62606 4.9335 6.21273 5.28684L6.57939 5.70017C6.96607 5.36683 7.39273 5.06684 7.8394 4.80683L7.98607 5.06016L7.9994 5.06684Z" fill="white"/>
<path d="M10.6057 4.11337C10.0325 4.21338 9.46583 4.38005 8.92573 4.60005L8.47913 3.5467C8.99247 3.33337 9.52587 3.1667 10.0725 3.05336L9.95241 2.51337C9.75921 2.56003 9.56585 2.60003 9.37249 2.66002L9.0858 2.74003L8.79914 2.84003L8.65914 2.8867L8.51914 2.94003L8.23914 3.05336L7.96579 3.17336C7.87246 3.21337 7.77912 3.25336 7.69246 3.3067L8.44579 4.82005L8.21913 4.93338L7.99247 5.06672L7.8458 4.80005L8.07246 4.68005L7.27246 3.18671C8.19345 2.69445 9.1852 2.3481 10.2125 2.16003L10.4125 3.2867C9.88583 3.38003 9.3658 3.52671 8.8658 3.71338L9.06573 4.22671C9.54578 4.0467 10.0457 3.9067 10.5591 3.82004L10.6057 4.11337Z" fill="white"/>
<path d="M13.3932 4.11326C12.8198 4.0066 12.2265 3.97326 11.6398 3.99992L11.5864 2.85325C12.1399 2.82659 12.6999 2.85325 13.2532 2.93326L13.3198 2.38658L13.0266 2.34659L12.7265 2.32658L12.5731 2.31325L12.4264 2.30658L12.1265 2.29992H11.5265L10.9266 2.35325L11.1132 4.03993C10.9465 4.05992 10.7799 4.07327 10.6064 4.10659L10.5532 3.81993L10.8132 3.77326L10.5731 2.10658C11.6065 1.95325 12.6532 1.96658 13.6864 2.13992L13.4932 3.27326C12.9598 3.17992 12.4264 3.13993 11.8932 3.13993V3.69326C12.4132 3.69326 12.9332 3.72659 13.4399 3.81993L13.3932 4.11326Z" fill="white"/>
<path d="M16.0002 5.06681C15.5003 4.7668 14.9602 4.53346 14.4002 4.35347L14.7335 3.26012C15.2669 3.42679 15.7868 3.64679 16.2735 3.90679L16.5335 3.42013L16.2668 3.28679C16.1735 3.23346 16.0802 3.20013 15.9935 3.15346L15.7202 3.03345L15.4402 2.92678L15.1535 2.82012L14.8735 2.72678L14.5801 2.64678L14.4401 2.60679L14.2934 2.56679L13.8935 4.21347L13.6468 4.16013L13.3936 4.11346L13.4469 3.82013L13.7002 3.86679L14.0402 2.20679C15.0602 2.42679 16.0536 2.79345 16.9602 3.31346L16.3869 4.3068C15.9203 4.04013 15.4335 3.81345 14.9202 3.64012L14.7469 4.16013C15.2335 4.32679 15.7068 4.5468 16.1536 4.80679L16.0069 5.06013L16.0002 5.06681Z" fill="white"/>
<path d="M18.1339 6.85337C17.7564 6.40479 17.3317 5.99802 16.8672 5.64002L17.5606 4.72669C18.0006 5.06002 18.4139 5.44668 18.7873 5.86003L19.1939 5.48669C18.6549 4.89329 18.0461 4.36724 17.3806 3.92L16.4472 5.33336C16.294 5.24003 16.154 5.14669 16.0073 5.06669L16.154 4.80002L16.374 4.93335L17.2673 3.5C18.1577 4.04716 18.9545 4.73367 19.6273 5.53336L18.7607 6.2667C18.4073 5.86669 18.0272 5.48669 17.6072 5.14669L17.2606 5.57335C17.6606 5.90002 18.0339 6.2667 18.3673 6.66003L18.1406 6.85337H18.1339Z" fill="white"/>
<path d="M19.533 9.25998C19.3329 8.70671 19.0663 8.18004 18.753 7.68669L19.713 7.06669C20.013 7.53336 20.2663 8.03337 20.4797 8.5467L20.9863 8.34003L20.933 8.20003L20.8664 8.0667L20.7463 7.7867L20.5463 7.3867L20.4663 7.25336L20.3196 7.00002L20.1597 6.7467C20.053 6.57336 19.9331 6.41335 19.8197 6.24669L18.4529 7.25336L18.2997 7.05336L18.1396 6.85336L18.3663 6.66002L18.5264 6.86002L19.8596 5.81335C20.5075 6.63471 21.0227 7.55251 21.3863 8.53337L20.3129 8.93331C20.1263 8.42671 19.8929 7.93336 19.6196 7.47336L19.1463 7.76004C19.413 8.2067 19.633 8.67337 19.813 9.16011L19.533 9.25998Z" fill="white"/>
<path d="M20.0133 12C20.0133 11.4133 19.9465 10.8267 19.8199 10.2533L20.9332 10.0066C21.0533 10.54 21.1266 11.1 21.1466 11.6533L21.6933 11.6334C21.6732 10.8334 21.5332 10.0333 21.3132 9.26658L19.6866 9.74663L19.6533 9.62001L19.5332 9.2599L19.8065 9.16003L19.8932 9.3999L21.4999 8.87329L21.5666 9.06L21.6133 9.24667L21.7132 9.6267C21.7466 9.75332 21.7799 9.87994 21.8 10.0066L21.8666 10.3933C21.9532 10.9066 21.9999 11.4266 21.9999 11.9467L20.8599 11.9534C20.8599 11.42 20.7999 10.8867 20.7066 10.3533L20.1666 10.46C20.26 10.9667 20.3066 11.48 20.3066 12H20.0133Z" fill="white"/>
<path d="M17.3332 15.4003C17.3332 6.61349 10.2199 6.73351 6.6665 7.88685L8.73986 9.90692C12.2932 8.52018 14.9599 9.90692 15.8532 10.7735C13.4799 9.16025 10.3199 9.72026 9.03985 10.2001L9.92652 11.0669C15.3799 8.98681 17.1333 13.0868 17.3332 15.4003Z" fill="white"/>
<path d="M11.334 18V14.2468L12.594 13.6667V12.8001L10.6673 13.6667V16.2667L10.2207 15.4001L10.3339 12.0001L10.2207 11.3534C10.8207 11.0667 12.0007 10.78 12.8874 10.78C14.7874 10.78 15.854 12.3134 16.1541 13.0866C14.7273 13.0866 14.3741 14.6266 14.3741 15.4001L11.334 18Z" fill="white"/>
</svg>

<svg xmlns="http://www.w3.org/2000/svg" width="24" height="24" fill="none" viewBox="0 0 24 24">
    <path fill="#fff" d="M19.533 14.74c.2-.547.334-1.12.413-1.7l1.134.14a9 9 0 0 1-.36 1.627l.52.166.087-.286.08-.294.066-.286.034-.147.026-.153.054-.294.04-.293.02-.153.006-.067.007-.08.027-.3-1.694-.107.014-.253V12h.3v.267l1.686.046a9.7 9.7 0 0 1-.573 3.067l-1.08-.393c.18-.5.32-1.027.4-1.554l-.54-.086a8.4 8.4 0 0 1-.393 1.5z"/>
    <path fill="#fff" d="M18.133 17.147a7.6 7.6 0 0 0 .98-1.453l1.013.52q-.38.74-.9 1.4l.44.333c.49-.631.9-1.32 1.22-2.054l-1.546-.68.053-.113.14-.36.28.1-.1.24 1.573.633-.067.18-.086.18-.08.18-.04.087-.047.087-.173.346-.2.34q-.4.67-.9 1.28l-.88-.733c.347-.413.653-.86.913-1.326l-.48-.267a8 8 0 0 1-.88 1.273l-.226-.193z"/>
    <path fill="#fff" d="M16 18.934a7.4 7.4 0 0 0 1.42-1.034l.774.84a9 9 0 0 1-1.32 1.007l.293.467.253-.16.247-.174c.16-.113.313-.24.473-.366.307-.254.6-.52.88-.814l-1.226-1.173.173-.187.167-.193.233.193-.173.2 1.273 1.127a10.6 10.6 0 0 1-2.413 1.967l-.58-.987q.698-.402 1.306-.933l-.36-.414c-.393.334-.813.64-1.266.894l-.14-.254z"/>
    <path fill="#fff" d="M13.393 19.887c.573-.1 1.14-.267 1.68-.487l.446 1.053a9 9 0 0 1-1.587.494l.114.54c.2-.047.386-.087.58-.147l.287-.08.286-.1.14-.047.14-.053.28-.113.273-.12c.094-.04.187-.08.274-.134l-.754-1.513.227-.113.227-.134.147.267-.227.12.8 1.493c-.921.493-1.913.839-2.94 1.027l-.2-1.127a9 9 0 0 0 1.546-.426l-.2-.514c-.48.18-.98.32-1.486.407zm-2.787 0c.58.106 1.166.14 1.753.113l.053 1.147a8.7 8.7 0 0 1-1.666-.08l-.067.546.293.04.3.02.154.014.146.006.3.007h.6l.6-.053-.186-1.687c.167-.02.34-.033.507-.067l.053.287-.26.047.24 1.666a10 10 0 0 1-3.113-.033l.2-1.133a9 9 0 0 0 1.6.133l-.014-.553a8.5 8.5 0 0 1-1.54-.127zM8 18.933c.5.3 1.04.534 1.6.714l-.334 1.093a9 9 0 0 1-1.54-.647l-.26.487.266.133c.094.054.187.087.274.134.093.04.18.086.273.12l.28.106.287.107.28.093.293.08.14.04.147.04.4-1.646.246.053.254.047-.053.293-.254-.047-.34 1.66a10 10 0 0 1-2.92-1.106l.573-.994a8.5 8.5 0 0 0 1.46.667l.18-.52a8 8 0 0 1-1.406-.647l.146-.253z"/>
    <path fill="#fff" d="M5.866 17.147c.374.453.8.86 1.267 1.213l-.693.914a8.6 8.6 0 0 1-1.227-1.134l-.407.374A10 10 0 0 0 6.62 20.08l.94-1.413c.146.093.286.193.433.267l-.147.266-.22-.133-.893 1.433a9.8 9.8 0 0 1-2.36-2.033l.867-.733c.353.4.733.78 1.153 1.12l.347-.42a9 9 0 0 1-1.107-1.094l.227-.193z"/>
    <path fill="#fff" d="M4.467 14.74c.2.553.466 1.08.78 1.573l-.96.62a9 9 0 0 1-.767-1.48l-.507.207.054.14.066.133.12.28.134.267.146.267.154.253c.046.087.106.174.16.253.1.174.22.334.333.5l1.367-1.006.153.2.167.2-.234.193-.16-.2-1.333 1.047a10 10 0 0 1-1.52-2.72l1.067-.4c.186.506.42 1 .7 1.46l.466-.287a8.3 8.3 0 0 1-.666-1.4z"/>
    <path fill="#fff" d="M3.987 12c0 .587.066 1.174.193 1.747l-1.113.246a9 9 0 0 1-.214-1.646l-.546.02c.02.8.16 1.6.38 2.366l1.626-.48.034.127.12.36-.274.1-.086-.24-1.607.527-.067-.187-.046-.186-.1-.38a4 4 0 0 1-.087-.38l-.067-.387A9.3 9.3 0 0 1 2 12.054l1.147-.007q.001.8.153 1.6l.533-.107a8.5 8.5 0 0 1-.14-1.54zm.48-2.74c-.2.547-.334 1.12-.407 1.7l-1.133-.133c.066-.56.186-1.1.36-1.634l-.527-.166-.087.286-.08.294-.1.44-.08.44-.04.3-.02.146-.013.147-.02.3 1.687.107-.014.253V12h-.3v-.267l-1.686-.046a9.7 9.7 0 0 1 .58-3.06l1.073.386a9 9 0 0 0-.4 1.56l.54.08a8 8 0 0 1 .393-1.493zm1.4-2.407q-.57.672-.98 1.454l-1.014-.52q.381-.74.9-1.4l-.433-.334a9.6 9.6 0 0 0-1.227 2.054l1.547.68-.053.113-.14.36-.274-.1.094-.24-1.574-.633.067-.18.087-.18.08-.18.04-.087.046-.087.174-.346.2-.34q.399-.67.9-1.28l.88.733a8.5 8.5 0 0 0-.914 1.327l.48.266a8.4 8.4 0 0 1 .88-1.273l.227.193z"/>
    <path fill="#fff" d="M8 5.067A7.4 7.4 0 0 0 6.58 6.1l-.774-.84a9 9 0 0 1 1.32-1.007l-.293-.466-.254.16-.24.173c-.166.113-.32.247-.48.367q-.46.381-.88.813l1.227 1.174-.173.186-.167.194-.233-.194.173-.2-1.273-1.126a10.6 10.6 0 0 1 2.413-1.967l.58.987c-.467.266-.9.58-1.313.933l.366.413a8.4 8.4 0 0 1 1.26-.893l.147.253z"/>
    <path fill="#fff" d="M10.606 4.113c-.573.1-1.14.267-1.68.487l-.447-1.053a9 9 0 0 1 1.594-.494l-.12-.54c-.194.047-.387.087-.58.147l-.287.08-.287.1-.14.047-.14.053-.28.113-.273.12c-.094.04-.187.08-.274.134l.754 1.513-.227.113-.227.134-.146-.267.226-.12-.8-1.493a10.1 10.1 0 0 1 2.94-1.027l.2 1.127a9 9 0 0 0-1.546.426l.2.514c.48-.18.98-.32 1.493-.407z"/>
    <path fill="#fff" d="M13.393 4.113A7.7 7.7 0 0 0 11.64 4l-.054-1.147a8.7 8.7 0 0 1 1.667.08l.067-.546-.293-.04-.3-.02-.154-.014-.147-.006-.3-.007h-.6l-.6.053.187 1.687c-.166.02-.333.033-.507.067l-.053-.287.26-.047-.24-1.666a10 10 0 0 1 3.113.033l-.193 1.133a9 9 0 0 0-1.6-.133v.553c.52 0 1.04.034 1.547.127zM16 5.067a7.7 7.7 0 0 0-1.6-.714l.333-1.093a9 9 0 0 1 1.54.647l.26-.487-.266-.133c-.093-.054-.187-.087-.274-.134l-.273-.12-.28-.106-.287-.107-.28-.093-.293-.08-.14-.04-.147-.04-.4 1.646-.246-.053-.253-.047.053-.293.253.047.34-1.66c1.02.22 2.014.586 2.92 1.106l-.573.994a8.3 8.3 0 0 0-1.467-.667l-.173.52c.486.167.96.387 1.407.647l-.147.253z"/>
    <path fill="#fff" d="M18.134 6.853a8.2 8.2 0 0 0-1.267-1.213l.694-.913c.44.333.853.72 1.226 1.133l.407-.373A10 10 0 0 0 17.38 3.92l-.934 1.413c-.153-.093-.293-.186-.44-.266l.147-.267.22.133.893-1.433a9.8 9.8 0 0 1 2.36 2.033l-.866.734a9.7 9.7 0 0 0-1.154-1.12l-.346.426c.4.327.773.694 1.106 1.087l-.226.193zm1.399 2.407a8 8 0 0 0-.78-1.573l.96-.62c.3.466.553.966.767 1.48l.506-.207-.053-.14-.067-.133-.12-.28-.2-.4-.08-.134L20.32 7l-.16-.253c-.107-.174-.227-.334-.34-.5l-1.367 1.006-.153-.2-.16-.2.226-.193.16.2 1.334-1.047a10 10 0 0 1 1.526 2.72l-1.073.4c-.187-.506-.42-1-.693-1.46l-.474.287q.399.67.667 1.4z"/>
    <path fill="#fff" d="M20.013 12c0-.587-.067-1.173-.193-1.747l1.113-.246c.12.533.194 1.093.214 1.646l.546-.02c-.02-.8-.16-1.6-.38-2.366l-1.626.48-.034-.127-.12-.36.273-.1.087.24 1.607-.527.067.187.046.187.1.38c.034.126.067.253.087.38l.067.386q.131.773.133 1.554l-1.14.006a9.3 9.3 0 0 0-.153-1.6l-.54.107q.14.76.14 1.54zm-2.68 3.4c0-8.787-7.113-8.666-10.666-7.513l2.073 2.02c3.553-1.387 6.22 0 7.113.867C13.48 9.16 10.32 9.72 9.04 10.2l.887.867c5.453-2.08 7.206 2.02 7.406 4.333"/>
    <path fill="#fff" d="M11.334 18v-3.753l1.26-.58V12.8l-1.927.867v2.6l-.446-.867.113-3.4-.113-.647c.6-.286 1.78-.573 2.666-.573 1.9 0 2.967 1.533 3.267 2.307-1.427 0-1.78 1.54-1.78 2.313z"/>
</svg>
